X: 1
T: Ievan Polka
N: It's actually "Ievan's Polka" in the source file, but that's just too wrong. ;-)
C: trad. Finland
O: this version from Kevin Burke)
S: Bruce Sagan's "scanfolk" session archive
S: Transcription: Ben Hemmendinger, 2020
F: https://nordicfiddlesandfeet.org/Allspel/Ievan.pdf 2021-7-12
R: polka
%S: s:4 b:16(4+4+4+4)
Z: 2021 John Chambers <jc:trillian.mit.edu>
M: 2/4
L: 1/16
K: Bm
|: B3c B2c2 | d2B2 B2d2 | c2A2 A2c2 | dcBA B2F2 |
|  B3c B2c2 | d2B2 B4   | e4   d2c2 | B2A2 B4  :|
|: f3d d2f2 | e2c2 c2d2 | e2fe d2c2 | B2c2 d2B2 |
|  f4  d2f2 | e2c2 c2d2 | e2fe d2c2 | B2A2 B4  :|
